svg/u1f93d_1f3fe_200d_2642.svg

<svg viewBox="0 0 128 128" xmlns="http://www.w3.org/2000/svg">
  <defs>
    <linearGradient id="body_1_" gradientTransform="matrix(1 0 0 -1 0 0)" gradientUnits="userSpaceOnUse" x1="60.4521" x2="71.3358" y1="-83.276" y2="-54.5319">
      <stop offset="0" stop-color="#8D5738"/>
      <stop offset="0.5" stop-color="#A56C43"/>
    </linearGradient>
    <linearGradient id="hand_2_" gradientTransform="matrix(0.7216 0.5127 0.5792 -0.8152 0 0)" gradientUnits="userSpaceOnUse" x1="152.477784" x2="152.162884" y1="-21.603904" y2="-32.709804">
      <stop offset="0.5" stop-color="#A56C43"/>
      <stop offset="1" stop-color="#8D5738"/>
    </linearGradient>
    <radialGradient id="SVGID_4_" cx="72.26" cy="-40.3079" gradientTransform="matrix(1 0 0 -1 0 0)" gradientUnits="userSpaceOnUse" r="19.7744">
      <stop offset="0" stop-color="#00BFA5"/>
      <stop offset="1" stop-color="#00AB94"/>
    </radialGradient>
    <radialGradient id="SVGID_1_" cx="31.2407" cy="-14.8659" gradientTransform="matrix(1 0 0 -1 0 0)" gradientUnits="userSpaceOnUse" r="17.6509">
      <stop offset="0.2092" stop-color="#FFA726"/>
      <stop offset="0.7917" stop-color="#B33F00"/>
    </radialGradient>
  </defs>
  <path id="body" d="M109.07,91.34 C108.98,91.46 98.89,103.19 98.89,103.19 L91.66,97.54 L96.78,89.86 L97.19,89.24 C97.19,89.24 96.83,89.09 96.22,88.84 C93.89,87.9 87.94,85.54 85.25,84.91 C81.75,84.09 80.9,86.05 79.64,89.15 C76.91,95.84 73.39,105.45 73.39,105.45 C60.86,104.03 47.97,101.68 35.37,101.13 C39.61,94.26 44.76,78.97 45.51,76.98 C46.87,73.39 43.99,72.76 39.25,71.42 C35.78,70.44 31.51,69.34 27.49,67.68 C22.24,65.51 22.25,59.99 23.24,57.18 C25.33,51.23 32.1,41.94 32.44,41.08 C33.57,38.18 30.07,38.18 28.19,34.02 C27.38,32.21 28.17,30.55 29.19,28.85 C30.44,26.77 32.96,25.84 35.36,25.47 C37.78,25.11 40.33,25.18 42.55,26.19 C43.02,26.41 43.65,26.61 44.05,26.96 C44.41,27.29 44.46,27.67 44.92,27.87 C45.5,28.12 46.09,27.82 46.69,28.22 C47.15,28.53 47.49,29.03 47.64,29.55 C47.91,30.42 48.51,31.07 48.24,31.93 C47.41,34.6 45.2,36.65 43.64,39.55 C42.67,41.34 41.98,43.27 41.17,45.14 C39.74,48.44 38.15,51.77 37.05,55.21 C36.97,55.45 36.89,55.69 36.82,55.93 C36.82,55.93 37.06,55.99 37.49,56.09 C40.2,56.76 50.55,59.26 57.49,61.01 C64.85,62.86 71.42,64.51 78.37,67.13 C98.09,74.59 103.6,78.31 106.45,79.93 C110.49,82.22 112.66,86.68 109.07,91.34 Z" fill="url(#body_1_)"/>
  <path id="tone" d="M37.49,56.09 L32.85,58.67 C32.81,58.69 32.76,58.68 32.73,58.64 C32.71,58.6 32.72,58.55 32.76,58.53 L37.05,55.21 C36.97,55.45 36.89,55.69 36.82,55.93 C36.82,55.93 37.06,55.99 37.49,56.09 Z" fill="#875334"/>
  <path id="neck_1_" d="M66.8,72.58 L66.8,72.58 C63.98,72.03 62.14,69.29 62.69,66.47 L63.61,61.78 L73.83,63.78 L72.91,68.47 C72.36,71.29 69.62,73.13 66.8,72.58 Z" fill="#7A4C32"/>
  <path d="M51.93,20.01 A16 16 0 1 1 19.93,20.01 A16 16 0 1 1 51.93,20.01 Z" fill="#FF9100"/>
  <path d="M51.93,20.01 A16 16 0 1 1 19.93,20.01 A16 16 0 1 1 51.93,20.01 Z" fill="url(#SVGID_1_)" opacity="0.4"/>
  <path d="M35.559,20.176 Q33.977,16.505 33.977,12.45 Q33.977,7.983 35.886,4.01 L35.93,4.01 C36.206,4.01 36.48,4.017 36.753,4.031 Q34.763,7.982 34.763,12.45 Q34.763,16.343 36.281,19.864 Z" fill="#6D4C41"/>
  <path d="M34.985,7.097 Q35.478,7.067 35.99,7.067 Q44.959,7.067 50.573,13.551 C50.895,14.281 51.165,15.04 51.377,15.823 L51.358,15.836 Q45.739,7.853 35.99,7.853 Q35.502,7.853 35.035,7.883 Z" fill="#5D4037"/>
  <path d="M34.419,13.838 Q35.2,13.777 35.99,13.777 Q46.059,13.777 51.826,21.847 C51.791,22.155 51.747,22.46 51.694,22.762 L51.564,22.85 Q45.985,14.563 35.99,14.563 Q35.23,14.563 34.481,14.622 Z" fill="#5D4037"/>
  <path d="M35.947,19.619 Q39.943,20.097 43.427,22.109 Q47.296,24.341 49.795,28 C49.651,28.251 49.499,28.497 49.342,28.738 Q46.901,25.021 43.033,22.791 Q39.689,20.859 35.853,20.401 Z" fill="#4E342E"/>
  <path d="M47.559,25.681 Q47.255,26.269 47.079,26.56 Q42.634,34.267 34.283,35.926 C33.451,35.841 32.637,35.692 31.847,35.484 Q41.548,34.577 46.399,26.163 L46.401,26.16 L46.404,26.156 Q46.567,25.887 46.861,25.319 Z" fill="#3E2723"/>
  <path d="M42.005,21.81 Q41.654,22.543 41.271,23.207 Q36.253,31.894 26.422,32.88 C26.155,32.682 25.894,32.476 25.64,32.263 L25.633,32.158 Q35.595,31.46 40.589,22.813 Q40.958,22.175 41.295,21.47 Z" fill="#4E342E"/>
  <path d="M36.236,20.245 Q33.839,23.466 30.336,25.481 Q26.465,27.705 22.091,28.045 C21.946,27.796 21.807,27.542 21.676,27.285 Q26.072,27.024 29.944,24.799 Q33.306,22.866 35.604,19.775 Z" fill="#4E342E"/>
  <path d="M25.193,27.278 Q24.935,26.892 24.668,26.425 Q20.215,18.7 22.964,10.633 C23.45,9.962 23.987,9.331 24.568,8.745 Q20.489,17.601 25.352,26.035 Q25.605,26.478 25.847,26.842 Z" fill="#6D4C41"/>
  <path d="M31.316,24.394 Q30.868,23.744 30.477,23.054 Q25.461,14.369 29.53,5.341 C29.827,5.212 30.128,5.091 30.434,4.979 L30.544,5.032 Q26.17,14.024 31.163,22.666 Q31.535,23.326 31.964,23.946 Z" fill="#795548"/>
  <path id="water_x5F_top_1_" d="M111.99,92.18 C105.42,92.18 102.06,99.37 95.99,99.37 C89.93,99.37 86.56,92.18 79.99,92.18 C73.42,92.18 70.06,99.37 63.99,99.37 C57.92,99.37 54.56,92.18 47.99,92.18 C41.42,92.18 38.05,99.37 31.99,99.37 C25.93,99.37 22.56,92.18 15.99,92.18 C11.01,92.18 7.86,96.3 3.99,98.3 L3.99,123.99 L123.97,123.99 L123.97,98.31 C120.12,96.31 116.97,92.18 111.99,92.18 Z" fill="#039BE5"/>
  <path id="water_x5F_bottom_1_" d="M111.98,111.9 C105.41,111.9 102.04,104.71 95.98,104.71 C89.92,104.71 86.55,111.9 79.98,111.9 C73.41,111.9 70.04,104.71 63.98,104.71 C57.92,104.71 54.55,111.9 47.98,111.9 C41.41,111.9 38.04,104.71 31.98,104.71 C25.92,104.71 22.55,111.9 15.98,111.9 C11.01,111.9 7.87,107.79 4.01,105.79 L4.01,123.99 L123.99,123.99 L123.99,105.78 C120.13,107.78 116.95,111.9 111.98,111.9 Z" fill="#29B6F6"/>
  <path id="tone_1_" d="M101.44,85.65 C101.46,85.67 101.45,85.69 101.43,85.71 L96.78,89.86 L97.19,89.24 C97.19,89.24 96.83,89.09 96.22,88.84 L101.37,85.63 C101.4,85.62 101.43,85.62 101.44,85.65 Z" fill="#875334"/>
  <path id="head" d="M76.17,25.19 L76.17,25.19 L76.17,25.19 C67.78,23.55 58.26,30.99 55.73,43.9 C53.21,56.74 59.97,64.65 68.12,66.25 C76.27,67.85 85.52,63.07 88.03,50.23 C90.56,37.32 84.55,26.83 76.17,25.19 Z" fill="#A56C43"/>
  <path d="M64.082,45.144 C65.393,45.401 66.24,46.713 65.973,48.073 C65.707,49.433 64.427,50.327 63.116,50.07 C61.804,49.813 60.957,48.502 61.224,47.142 C61.491,45.781 62.77,44.887 64.082,45.144 Z" fill="#42312C"/>
  <path d="M79.915,48.249 C81.227,48.506 82.074,49.817 81.807,51.178 C81.541,52.538 80.261,53.432 78.95,53.175 C77.638,52.918 76.791,51.607 77.058,50.246 C77.325,48.886 78.604,47.992 79.915,48.249 Z" fill="#42312C"/>
  <path id="mouth" d="M73.39,58.85 C71.68,59.46 66.64,58.47 65.29,57.26 C64.51,56.56 63.45,57.19 63.66,58.06 C63.87,58.92 66.25,61.28 68.63,61.75 C71.01,62.22 74.07,60.92 74.59,60.2 C75.1,59.47 74.37,58.49 73.39,58.85 Z" fill="#473530"/>
  <path id="nose" d="M72.2,53.81 C72.15,53.78 72.1,53.76 72.05,53.74 L68.64,53.07 C68.59,53.07 68.53,53.07 68.48,53.08 C68.15,53.14 67.91,53.43 67.99,53.8 C68.07,54.17 68.56,55.26 69.93,55.53 C71.3,55.8 72.16,54.97 72.38,54.66 C72.59,54.35 72.48,54 72.2,53.81 Z" fill="#875334"/>
  <path d="M90.61,51.72 C91.03,52.42 91.25,53.07 90.2,55.08 C88.09,59.12 84.46,59.84 84.3,59.87 C84.27,59.88 84.24,59.88 84.21,59.88 C84.05,59.88 83.9,59.81 83.81,59.68 C83.69,59.52 83.68,59.32 83.77,59.15 C83.8,59.08 87.14,52.62 84.58,46.94 C82.92,43.26 79.17,40.68 73.41,39.28 C67.99,37.96 63.75,38.51 60.8,40.95 C55.81,45.08 56.16,53.3 56.17,53.38 C56.17,53.56 56.09,53.73 55.94,53.83 C55.8,53.92 55.61,53.94 55.45,53.86 C55.29,53.78 51.63,51.95 52.39,45.77 C52.57,44.33 52.91,43.74 53.31,43.42 C53.43,43.31 53.56,43.23 53.69,43.16 C53.86,43.07 53.89,43.05 53.89,42.76 L53.89,42.71 C54.09,35.01 57.22,28.08 62.27,24.18 C66.48,20.94 71.83,19.96 77.75,21.35 C83.32,22.67 87.37,25.54 89.78,29.89 C94.19,37.84 91.5,47.39 90.57,50.12 C90.23,51.12 90.4,51.38 90.61,51.72 Z" fill="url(#SVGID_4_)"/>
  <path d="M55.42,48.43 C55.42,48.43 55.08,46.7 54.56,45.32 C54.16,44.3 53.59,43.68 53.31,43.42 C53.43,43.31 53.56,43.23 53.69,43.16 C53.86,43.07 53.89,43.05 53.89,42.76 C54.12,42.88 54.69,43.28 55.32,44.47 C56.02,45.81 55.42,48.43 55.42,48.43 Z" fill="#009984"/>
  <path d="M86.18,55.48 C86.18,55.48 87.64,53.45 88.81,52.56 C90,51.65 90.63,51.77 90.63,51.77 C90.63,51.77 90.45,51.4 90.43,51.18 C90.41,50.96 90.45,50.66 90.45,50.66 C90.45,50.66 89.82,50.72 88.6,51.45 C86.65,52.65 86.18,55.48 86.18,55.48 Z" fill="#009984"/>
  <path d="M83.97,47.07 L83.97,47.07 C83.97,47.07 83.21,45.12 80.66,44.62 C78.11,44.12 76.67,45.63 76.67,45.63 L76.67,45.63 C76.56,45.74 76.47,45.88 76.44,46.04 C76.36,46.46 76.63,46.86 77.05,46.94 C77.14,46.96 77.36,46.93 77.38,46.93 C79.03,46.6 80.23,46.83 80.23,46.83 C80.23,46.83 81.42,47.07 82.82,48 C82.84,48.01 83.04,48.12 83.12,48.13 C83.54,48.21 83.94,47.94 84.02,47.52 C84.06,47.38 84.03,47.22 83.97,47.07 Z" fill="#42312C"/>
  <path d="M68.11,43.97 L68.11,43.97 C68.11,43.97 67.35,42.02 64.8,41.52 C62.25,41.02 60.81,42.53 60.81,42.53 L60.81,42.53 C60.7,42.64 60.61,42.78 60.58,42.94 C60.5,43.36 60.77,43.76 61.19,43.84 C61.28,43.86 61.5,43.83 61.52,43.83 C63.17,43.5 64.37,43.73 64.37,43.73 C64.37,43.73 65.56,43.97 66.96,44.9 C66.98,44.91 67.18,45.02 67.26,45.03 C67.68,45.11 68.08,44.84 68.16,44.42 C68.2,44.28 68.18,44.12 68.11,43.97 Z" fill="#42312C"/>
  <path id="hand_1_" d="M91.98,105.58 L89.88,104.09 C87.21,102.19 86.58,98.46 88.48,95.79 L88.74,95.42 C90.64,92.75 94.37,92.12 97.04,94.02 L99.14,95.51 C101.81,97.41 102.44,101.14 100.54,103.81 L100.28,104.18 C98.39,106.84 94.65,107.47 91.98,105.58 Z" fill="url(#hand_2_)"/>
</svg>

<svg viewBox="0 0 128 128" xmlns="http://www.w3.org/2000/svg" xmlns:xlink="http://www.w3.org/1999/xlink">
  <linearGradient id="body_1_" gradientTransform="matrix(1 0 0 -1 0 128)" gradientUnits="userSpaceOnUse" x1="60.4521" x2="71.3358" y1="44.724" y2="73.4681">
    <stop offset="0" stop-color="#8D5738"/>
    <stop offset="0.5" stop-color="#A56C43"/>
  </linearGradient>
  <path id="body" d="M109.07,91.34c-0.09,0.12-10.18,11.85-10.18,11.85l-7.23-5.65l5.12-7.68l0.41-0.62 c0,0-0.36-0.15-0.97-0.4c-2.33-0.94-8.28-3.3-10.97-3.93c-3.5-0.82-4.35,1.14-5.61,4.24c-2.73,6.69-6.25,16.3-6.25,16.3 c-12.53-1.42-25.42-3.77-38.02-4.32c4.24-6.87,9.39-22.16,10.14-24.15c1.36-3.59-1.52-4.22-6.26-5.56 c-3.47-0.98-7.74-2.08-11.76-3.74c-5.25-2.17-5.24-7.69-4.25-10.5c2.09-5.95,8.86-15.24,9.2-16.1c1.13-2.9-2.37-2.9-4.25-7.06 c-0.81-1.81-0.02-3.47,1-5.17c1.25-2.08,3.77-3.01,6.17-3.38c2.42-0.36,4.97-0.29,7.19,0.72c0.47,0.22,1.1,0.42,1.5,0.77 c0.36,0.33,0.41,0.71,0.87,0.91c0.58,0.25,1.17-0.05,1.77,0.35c0.46,0.31,0.8,0.81,0.95,1.33c0.27,0.87,0.87,1.52,0.6,2.38 c-0.83,2.67-3.04,4.72-4.6,7.62c-0.97,1.79-1.66,3.72-2.47,5.59c-1.43,3.3-3.02,6.63-4.12,10.07c-0.08,0.24-0.16,0.48-0.23,0.72 c0,0,0.24,0.06,0.67,0.16c2.71,0.67,13.06,3.17,20,4.92c7.36,1.85,13.93,3.5,20.88,6.12c19.72,7.46,25.23,11.18,28.08,12.8 C110.49,82.22,112.66,86.68,109.07,91.34z" fill="url(#body_1_)"/>
  <path id="tone" d="M37.49,56.09l-4.64,2.58c-0.04,0.02-0.09,0.01-0.12-0.03c-0.02-0.04-0.01-0.09,0.03-0.11 l4.29-3.32c-0.08,0.24-0.16,0.48-0.23,0.72C36.82,55.93,37.06,55.99,37.49,56.09z" fill="#875334"/>
  <path id="neck_1_" d="M66.8,72.58L66.8,72.58c-2.82-0.55-4.66-3.29-4.11-6.11l0.92-4.69l10.22,2l-0.92,4.69 C72.36,71.29,69.62,73.13,66.8,72.58z" fill="#7A4C32"/>
  <g id="ball_1_">
    <g>
      <circle cx="35.93" cy="20.01" fill="#FF9100" r="16"/>
      <radialGradient id="SVGID_1_" cx="31.2407" cy="113.1341" gradientTransform="matrix(1 0 0 -1 0 128)" gradientUnits="userSpaceOnUse" r="17.6509">
        <stop offset="0.2092" stop-color="#FFA726"/>
        <stop offset="0.7917" stop-color="#B33F00"/>
      </radialGradient>
      <circle cx="35.93" cy="20.01" enable-background="new " fill="url(#SVGID_1_)" opacity="0.4" r="16"/>
      <g>
        <defs>
          <circle id="SVGID_2_" cx="35.93" cy="20.01" r="16"/>
        </defs>
        <clipPath id="SVGID_3_">
          <use overflow="visible" xlink:href="#SVGID_2_"/>
        </clipPath>
        <g clip-path="url(#SVGID_3_)">
          <g>
            <path d="M35.92,20.02c-1-2.32-1.55-4.88-1.55-7.57 c0-3.17,0.77-6.16,2.13-8.79" fill="none" stroke="#6D4C41" stroke-width="0.7869"/>
            <path d="M35.01,7.49c0.32-0.02,0.65-0.03,0.98-0.03 c6.49,0,12.22,3.22,15.69,8.15" fill="none" stroke="#5D4037" stroke-width="0.7869"/>
            <path d="M34.45,14.23c0.51-0.04,1.02-0.06,1.54-0.06 c6.62,0,12.46,3.35,15.9,8.46" fill="none" stroke="#5D4037" stroke-width="0.7869"/>
          </g>
          <g>
            <path d="M35.9,20.01c2.51,0.3,5.01,1.1,7.33,2.44 c2.74,1.58,4.95,3.75,6.55,6.24" fill="none" stroke="#4E342E" stroke-width="0.7869"/>
            <path d="M47.21,25.5c-0.15,0.29-0.3,0.58-0.47,0.86 c-3.24,5.62-8.9,8.97-14.9,9.52" fill="none" stroke="#3E2723" stroke-width="0.7869"/>
            <path d="M41.65,21.64c-0.22,0.46-0.46,0.92-0.72,1.37 c-3.31,5.73-9.13,9.11-15.27,9.54" fill="none" stroke="#4E342E" stroke-width="0.7869"/>
          </g>
          <g>
            <path d="M35.92,20.01c-1.51,2.03-3.45,3.79-5.78,5.13 c-2.75,1.58-5.72,2.41-8.68,2.55" fill="none" stroke="#4E342E" stroke-width="0.7869"/>
            <path d="M25.52,27.06c-0.18-0.27-0.35-0.55-0.51-0.83 c-3.24-5.62-3.32-12.19-0.79-17.67" fill="none" stroke="#6D4C41" stroke-width="0.7869"/>
            <path d="M31.64,24.17c-0.29-0.42-0.56-0.85-0.82-1.31 c-3.31-5.73-3.32-12.47-0.63-18" fill="none" stroke="#795548" stroke-width="0.7869"/>
          </g>
        </g>
      </g>
    </g>
  </g>
  <path id="water_x5F_top_1_" d="M111.99,92.18c-6.57,0-9.93,7.19-16,7.19c-6.06,0-9.43-7.19-16-7.19 s-9.93,7.19-16,7.19s-9.43-7.19-16-7.19s-9.94,7.19-16,7.19s-9.43-7.19-16-7.19c-4.98,0-8.13,4.12-12,6.12v25.69h119.98V98.31 C120.12,96.31,116.97,92.18,111.99,92.18z" fill="#039BE5"/>
  <path id="water_x5F_bottom_1_" d="M111.98,111.9c-6.57,0-9.94-7.19-16-7.19c-6.06,0-9.43,7.19-16,7.19 s-9.94-7.19-16-7.19s-9.43,7.19-16,7.19s-9.94-7.19-16-7.19s-9.43,7.19-16,7.19c-4.97,0-8.11-4.11-11.97-6.11v18.2h119.98v-18.21 C120.13,107.78,116.95,111.9,111.98,111.9z" fill="#29B6F6"/>
  <path id="tone_1_" d="M101.44,85.65c0.02,0.02,0.01,0.04-0.01,0.06l-4.65,4.15l0.41-0.62 c0,0-0.36-0.15-0.97-0.4l5.15-3.21C101.4,85.62,101.43,85.62,101.44,85.65z" fill="#875334"/>
  <path id="head" d="M76.17,25.19L76.17,25.19L76.17,25.19c-8.39-1.64-17.91,5.8-20.44,18.71 c-2.52,12.84,4.24,20.75,12.39,22.35s17.4-3.18,19.91-16.02C90.56,37.32,84.55,26.83,76.17,25.19z" fill="#A56C43"/>
  <g id="eyes">
    <ellipse cx="63.6" cy="47.61" fill="#42312C" rx="2.51" ry="2.42" transform="matrix(0.1924 -0.9813 0.9813 0.1924 4.6423 100.8578)"/>
    <ellipse cx="79.44" cy="50.71" fill="#42312C" rx="2.51" ry="2.42" transform="matrix(0.1924 -0.9813 0.9813 0.1924 14.3866 118.9099)"/>
  </g>
  <path id="mouth" d="M73.39,58.85c-1.71,0.61-6.75-0.38-8.1-1.59c-0.78-0.7-1.84-0.07-1.63,0.8 c0.21,0.86,2.59,3.22,4.97,3.69s5.44-0.83,5.96-1.55C75.1,59.47,74.37,58.49,73.39,58.85z" fill="#473530"/>
  <path id="nose" d="M72.2,53.81c-0.05-0.03-0.1-0.05-0.15-0.07l-3.41-0.67c-0.05,0-0.11,0-0.16,0.01 c-0.33,0.06-0.57,0.35-0.49,0.72c0.08,0.37,0.57,1.46,1.94,1.73c1.37,0.27,2.23-0.56,2.45-0.87C72.59,54.35,72.48,54,72.2,53.81z" fill="#875334"/>
  <g id="swimming_x5F_cap">
    <radialGradient id="SVGID_4_" cx="72.26" cy="87.6921" gradientTransform="matrix(1 0 0 -1 0 128)" gradientUnits="userSpaceOnUse" r="19.7744">
      <stop offset="0" stop-color="#00BFA5"/>
      <stop offset="1" stop-color="#00AB94"/>
    </radialGradient>
    <path d="M90.61,51.72c0.42,0.7,0.64,1.35-0.41,3.36c-2.11,4.04-5.74,4.76-5.9,4.79 c-0.03,0.01-0.06,0.01-0.09,0.01c-0.16,0-0.31-0.07-0.4-0.2c-0.12-0.16-0.13-0.36-0.04-0.53c0.03-0.07,3.37-6.53,0.81-12.21 c-1.66-3.68-5.41-6.26-11.17-7.66c-5.42-1.32-9.66-0.77-12.61,1.67c-4.99,4.13-4.64,12.35-4.63,12.43c0,0.18-0.08,0.35-0.23,0.45 c-0.14,0.09-0.33,0.11-0.49,0.03s-3.82-1.91-3.06-8.09c0.18-1.44,0.52-2.03,0.92-2.35c0.12-0.11,0.25-0.19,0.38-0.26 c0.17-0.09,0.2-0.11,0.2-0.4v-0.05c0.2-7.7,3.33-14.63,8.38-18.53c4.21-3.24,9.56-4.22,15.48-2.83c5.57,1.32,9.62,4.19,12.03,8.54 c4.41,7.95,1.72,17.5,0.79,20.23C90.23,51.12,90.4,51.38,90.61,51.72z" fill="url(#SVGID_4_)"/>
    <path d="M55.42,48.43c0,0-0.34-1.73-0.86-3.11c-0.4-1.02-0.97-1.64-1.25-1.9c0.12-0.11,0.25-0.19,0.38-0.26 c0.17-0.09,0.2-0.11,0.2-0.4c0.23,0.12,0.8,0.52,1.43,1.71C56.02,45.81,55.42,48.43,55.42,48.43z" fill="#009984"/>
    <path d="M86.18,55.48c0,0,1.46-2.03,2.63-2.92c1.19-0.91,1.82-0.79,1.82-0.79s-0.18-0.37-0.2-0.59 s0.02-0.52,0.02-0.52s-0.63,0.06-1.85,0.79C86.65,52.65,86.18,55.48,86.18,55.48z" fill="#009984"/>
  </g>
  <g id="eyebrows">
    <path d="M83.97,47.07L83.97,47.07c0,0-0.76-1.95-3.31-2.45s-3.99,1.01-3.99,1.01l0,0 c-0.11,0.11-0.2,0.25-0.23,0.41c-0.08,0.42,0.19,0.82,0.61,0.9c0.09,0.02,0.31-0.01,0.33-0.01c1.65-0.33,2.85-0.1,2.85-0.1 s1.19,0.24,2.59,1.17c0.02,0.01,0.22,0.12,0.3,0.13c0.42,0.08,0.82-0.19,0.9-0.61C84.06,47.38,84.03,47.22,83.97,47.07z" fill="#42312C"/>
    <path d="M68.11,43.97L68.11,43.97c0,0-0.76-1.95-3.31-2.45c-2.55-0.5-3.99,1.01-3.99,1.01l0,0 c-0.11,0.11-0.2,0.25-0.23,0.41c-0.08,0.42,0.19,0.82,0.61,0.9c0.09,0.02,0.31-0.01,0.33-0.01c1.65-0.33,2.85-0.1,2.85-0.1 s1.19,0.24,2.59,1.17c0.02,0.01,0.22,0.12,0.3,0.13c0.42,0.08,0.82-0.19,0.9-0.61C68.2,44.28,68.18,44.12,68.11,43.97z" fill="#42312C"/>
  </g>
  <linearGradient id="hand_2_" gradientTransform="matrix(0.7216 0.5127 0.5792 -0.8152 1083.5981 -1632.4772)" gradientUnits="userSpaceOnUse" x1="222.7233" x2="222.4084" y1="-1979.9728" y2="-1991.0787">
    <stop offset="0.5" stop-color="#A56C43"/>
    <stop offset="1" stop-color="#8D5738"/>
  </linearGradient>
  <path id="hand_1_" d="M91.98,105.58l-2.1-1.49c-2.67-1.9-3.3-5.63-1.4-8.3l0.26-0.37 c1.9-2.67,5.63-3.3,8.3-1.4l2.1,1.49c2.67,1.9,3.3,5.63,1.4,8.3l-0.26,0.37C98.39,106.84,94.65,107.47,91.98,105.58z" fill="url(#hand_2_)"/>
</svg>
